assets/illustrations/default/message-template-2.svg

<svg xmlns="http://www.w3.org/2000/svg" width="1080" height="1080" fill="none"><path fill="#8C3A03" d="M122.953 352.621v-94.2l88.705-24.335v154.645z"/><path fill="#8C3A03" d="M122.953 486.856v-94.2l88.705-24.335v154.645z"/><path fill="#8C3A03" d="M122.953 617.166v-94.2l88.705-24.335v154.645z"/><path fill="#8C3A03" d="M135.512 732.8v-81.289l76.93-21v133.45z"/><path fill="#0096FA" d="M218.622 223.583h-27.266c-5.453 0-9.738-4.284-9.738-9.738v-42.652c0-5.453 4.285-9.738 9.738-9.738h27.266c5.454 0 9.738 4.285 9.738 9.738v42.652c0 5.454-4.284 9.738-9.738 9.738M218.622 356.019h-27.266c-5.453 0-9.738-4.285-9.738-9.738v-87.057c0-5.454 4.285-9.738 9.738-9.738h27.266c5.454 0 9.738 4.284 9.738 9.738v87.057c0 5.453-4.284 9.738-9.738 9.738M698.51 414.252h-27.267c-5.453 0-9.738-4.285-9.738-9.738v-87.057c0-5.453 4.285-9.738 9.738-9.738h27.267c5.453 0 9.737 4.285 9.737 9.738v87.057c0 5.453-4.479 9.738-9.737 9.738"/><path fill="url(#a)" d="M614.955 1044.1H274.127c-43.042 0-77.903-34.86-77.903-77.902V77.904C196.224 34.862 231.085 0 274.127 0h340.828c43.041 0 77.903 34.862 77.903 77.904v888.294c.195 43.042-34.667 77.902-77.903 77.902"/><path fill="url(#b)" d="M612.229 1024.04H277.244c-36.03 0-65.244-29.212-65.244-65.242V85.11c0-36.03 29.214-65.244 65.244-65.244h334.985c36.03 0 65.244 29.214 65.244 65.244v873.688c-.195 36.03-29.214 65.242-65.244 65.242"/><path fill="#fff" d="M436.687 199.568c0-10.004 8.11-18.114 18.115-18.114H620.55c10.004 0 18.114 8.11 18.114 18.115v24.443a6.04 6.04 0 0 1-6.038 6.038H454.802c-10.005 0-18.115-8.11-18.115-18.115z"/><path fill="#B2DFFD" d="M468.67 266.279c0-10.005-8.11-18.115-18.114-18.115H266.584c-10.004 0-18.114 8.11-18.114 18.115v24.443a6.04 6.04 0 0 0 6.038 6.038h196.048c10.004 0 18.114-8.11 18.114-18.114zM468.67 428.555c0-10.005-8.11-18.115-18.114-18.115H266.584c-10.004 0-18.114 8.11-18.114 18.115v24.443a6.04 6.04 0 0 0 6.038 6.038h196.048c10.004 0 18.114-8.11 18.114-18.114z"/><path fill="#fff" d="M363.794 332.989c0-10.004 8.11-18.115 18.114-18.115h238.643c10.004 0 18.114 8.111 18.114 18.115v53.297a6.04 6.04 0 0 1-6.038 6.038H381.908c-10.004 0-18.114-8.11-18.114-18.114z"/><path fill="url(#c)" d="M489.335 80.435h-90.562a21.36 21.36 0 0 1-21.424-21.424 21.36 21.36 0 0 1 21.424-21.423h90.562a21.36 21.36 0 0 1 21.424 21.423 21.36 21.36 0 0 1-21.424 21.424"/><path fill="#F5F5F5" d="M489.921 65.828a6.817 6.817 0 1 0-.001-13.633 6.817 6.817 0 0 0 .001 13.633"/><path fill="url(#d)" fill-opacity=".7" d="m694.026 560.444-3.257-4.107v313.792l16.443 12.332 19.184-32.886-3.373-208.029a134.02 134.02 0 0 0-28.997-81.102"/><path fill="#8C3A03" d="m831.806 535.996 188.404 107.545L1060.24 1080 690.506 862.555V663.951l-109.327-321.36L706.2 278.334z"/><g filter="url(#e)"><path fill="#F6F6F6" d="M533.036 478.408c0-13.304-10.785-24.09-24.09-24.09H61.09c-13.305 0-24.09 10.786-24.09 24.09v457.716a8.03 8.03 0 0 0 8.03 8.03h463.916c13.305 0 24.09-10.785 24.09-24.09z"/><path fill="#1E6BF1" d="M55.601 497.133c0-13.373 10.841-24.214 24.214-24.214h410.406c13.373 0 24.214 10.841 24.214 24.214v323.599c0 13.373-10.841 24.214-24.214 24.214H79.815c-13.373 0-24.214-10.841-24.214-24.214z"/><path fill="#1968F0" d="m242.245 760.625 117.697-115.823L227.2 697.831z"/><path fill="url(#f)" d="m161.794 677.164 183.272 78.976c15.273 6.586 32.476-3.691 34.009-20.212l15.67-153.977c1.704-18.792-17.657-32.362-34.746-24.3l-198.83 80.508c-16.692 7.836-16.294 31.738.625 39.005"/><path fill="#0C4EC0" d="m200.175 693.743 28.274 63.646c3.463 7.778 14.875 6.699 16.749-1.647l8.857-38.778 62.17-82.892c3.52-4.94-2.499-11.072-7.495-7.609z"/><path fill="#F6F6F6" d="M372.564 665.759c0 47.454-38.469 85.923-85.922 85.923-47.454 0-85.923-38.469-85.923-85.923s38.469-85.923 85.923-85.923 85.922 38.469 85.922 85.923" opacity=".5"/><path fill="#F6F6F6" d="M324.219 661.565c4.368 2.522 4.368 8.827 0 11.349l-49.229 28.422c-4.369 2.522-9.829-.63-9.829-5.674v-56.845c0-5.044 5.46-8.197 9.829-5.675z"/></g><defs><linearGradient id="a" x1="123.005" x2="879.47" y1="217.191" y2="934.051" gradientUnits="userSpaceOnUse"><stop stop-color="#1968F0"/><stop offset=".291" stop-color="#125BD8"/><stop offset=".589" stop-color="#0E51C6"/><stop offset=".805" stop-color="#0C4EC0"/></linearGradient><linearGradient id="b" x1="42.458" x2="701.987" y1="-285.826" y2="1129.86" gradientUnits="userSpaceOnUse"><stop stop-color="#fff"/><stop offset=".148" stop-color="#F7FAFE"/><stop offset=".304" stop-color="#E2ECFD"/><stop offset=".678" stop-color="#FAFCFF"/><stop offset=".967" stop-color="#C5D9FB"/></linearGradient><linearGradient id="c" x1="385.959" x2="538.146" y1="40.676" y2="88.697" gradientUnits="userSpaceOnUse"><stop stop-color="#1968F0"/><stop offset=".211" stop-color="#1765EA"/><stop offset=".489" stop-color="#135CD9"/><stop offset=".785" stop-color="#0C4EC0"/></linearGradient><linearGradient id="d" x1="649.661" x2="697.434" y1="487.824" y2="785.738" gradientUnits="userSpaceOnUse"><stop stop-color="#98646D" stop-opacity=".8"/><stop offset="1" stop-color="#98646D" stop-opacity="0"/></linearGradient><linearGradient id="f" x1="203.243" x2="523.208" y1="717.052" y2="595.889" gradientUnits="userSpaceOnUse"><stop offset=".29" stop-color="#0096FA"/><stop offset=".473" stop-color="#0093FA"/><stop offset=".609" stop-color="#008AFB"/><stop offset=".729" stop-color="#007AFB"/><stop offset=".84" stop-color="#0063FD"/><stop offset=".944" stop-color="#0046FE"/><stop offset="1" stop-color="#03F"/></linearGradient><filter id="e" width="548.045" height="541.845" x="10.996" y="434.815" color-interpolation-filters="sRGB" filterUnits="userSpaceOnUse"><feFlood flood-opacity="0" result="BackgroundImageFix"/><feColorMatrix in="SourceAlpha" result="hardAlpha" values="0 0 0 0 0 0 0 0 0 0 0 0 0 0 0 0 0 0 127 0"/><feOffset dy="6.501"/><feGaussianBlur stdDeviation="13.002"/><feColorMatrix values="0 0 0 0 0 0 0 0 0 0 0 0 0 0 0 0 0 0 0.2 0"/><feBlend in2="BackgroundImageFix" result="effect1_dropShadow_10272_1588"/><feBlend in="SourceGraphic" in2="effect1_dropShadow_10272_1588" result="shape"/></filter></defs></svg>

<svg width="1080" height="1080" viewBox="0 0 1080 1080" fill="none" xmlns="http://www.w3.org/2000/svg">
<path d="M122.952 352.621V258.421L211.657 234.086V388.731L122.952 352.621Z" fill="#8C3A03"/>
<path d="M122.952 486.856V392.656L211.657 368.321V522.966L122.952 486.856Z" fill="#8C3A03"/>
<path d="M122.952 617.166V522.966L211.657 498.631V653.276L122.952 617.166Z" fill="#8C3A03"/>
<path d="M135.512 732.8V651.511L212.442 630.511V763.961L135.512 732.8Z" fill="#8C3A03"/>
<path d="M218.622 223.583H191.356C185.903 223.583 181.618 219.299 181.618 213.845V171.193C181.618 165.74 185.903 161.455 191.356 161.455H218.622C224.075 161.455 228.36 165.74 228.36 171.193V213.845C228.36 219.299 224.075 223.583 218.622 223.583Z" fill="#0096FA"/>
<path d="M218.622 356.019H191.356C185.903 356.019 181.618 351.734 181.618 346.281V259.224C181.618 253.77 185.903 249.486 191.356 249.486H218.622C224.075 249.486 228.36 253.77 228.36 259.224V346.281C228.36 351.734 224.075 356.019 218.622 356.019Z" fill="#0096FA"/>
<path d="M698.509 414.252H671.243C665.79 414.252 661.505 409.967 661.505 404.514V317.457C661.505 312.004 665.79 307.719 671.243 307.719H698.509C703.962 307.719 708.247 312.004 708.247 317.457V404.514C708.247 409.967 703.768 414.252 698.509 414.252Z" fill="#0096FA"/>
<path d="M614.955 1044.1H274.127C231.085 1044.1 196.224 1009.24 196.224 966.198V77.9035C196.224 34.8618 231.085 0 274.127 0H614.955C657.996 0 692.858 34.8618 692.858 77.9035V966.198C693.053 1009.24 658.191 1044.1 614.955 1044.1Z" fill="url(#paint0_linear_10272_1588)"/>
<path d="M612.229 1024.04H277.244C241.214 1024.04 212 994.828 212 958.798V85.1101C212 49.0798 241.214 19.866 277.244 19.866H612.229C648.259 19.866 677.473 49.0798 677.473 85.1101V958.798C677.278 994.828 648.259 1024.04 612.229 1024.04Z" fill="url(#paint1_linear_10272_1588)"/>
<path d="M436.687 199.568C436.687 189.564 444.797 181.454 454.801 181.454H620.55C630.554 181.454 638.664 189.564 638.664 199.569V224.012C638.664 227.347 635.961 230.05 632.626 230.05H454.801C444.797 230.05 436.687 221.94 436.687 211.935V199.568Z" fill="white"/>
<path d="M468.67 266.279C468.67 256.274 460.56 248.164 450.556 248.164H266.584C256.58 248.164 248.47 256.274 248.47 266.279V290.722C248.47 294.057 251.173 296.76 254.508 296.76H450.556C460.56 296.76 468.67 288.65 468.67 278.646V266.279Z" fill="#B2DFFD"/>
<path d="M468.67 428.555C468.67 418.55 460.56 410.44 450.556 410.44H266.584C256.58 410.44 248.47 418.55 248.47 428.555V452.998C248.47 456.333 251.173 459.036 254.508 459.036H450.556C460.56 459.036 468.67 450.926 468.67 440.922V428.555Z" fill="#B2DFFD"/>
<path d="M363.794 332.989C363.794 322.985 371.904 314.874 381.908 314.874H620.551C630.555 314.874 638.665 322.985 638.665 332.989V386.286C638.665 389.621 635.962 392.324 632.627 392.324H381.908C371.904 392.324 363.794 384.214 363.794 374.21V332.989Z" fill="white"/>
<path d="M489.335 80.4349H398.772C386.892 80.4349 377.349 70.8917 377.349 59.0115C377.349 47.1312 386.892 37.588 398.772 37.588H489.335C501.215 37.588 510.759 47.1312 510.759 59.0115C510.759 70.8917 501.215 80.4349 489.335 80.4349Z" fill="url(#paint2_linear_10272_1588)"/>
<path d="M489.92 65.8283C493.685 65.8283 496.737 62.7764 496.737 59.0117C496.737 55.2471 493.685 52.1952 489.92 52.1952C486.156 52.1952 483.104 55.2471 483.104 59.0117C483.104 62.7764 486.156 65.8283 489.92 65.8283Z" fill="#F5F5F5"/>
<path d="M694.026 560.444L690.769 556.337V870.129L707.212 882.461L726.396 849.575L723.022 641.546C722.544 612.058 712.352 583.551 694.026 560.444Z" fill="url(#paint3_linear_10272_1588)" fill-opacity="0.7"/>
<path d="M831.806 535.996L1020.21 643.541L1060.24 1080L690.506 862.555V663.951L581.179 342.591L706.2 278.334L831.806 535.996Z" fill="#8C3A03"/>
<g filter="url(#filter0_d_10272_1588)">
<path d="M533.036 478.408C533.036 465.104 522.251 454.318 508.946 454.318H61.0896C47.7852 454.318 36.9999 465.104 36.9999 478.408V936.124C36.9999 940.559 40.595 944.154 45.0298 944.154H508.946C522.251 944.154 533.036 933.369 533.036 920.064V478.408Z" fill="#F6F6F6"/>
<path d="M55.6008 497.133C55.6008 483.76 66.4418 472.919 79.8147 472.919H490.22C503.593 472.919 514.434 483.76 514.434 497.133V820.732C514.434 834.105 503.593 844.946 490.22 844.946H79.8147C66.4418 844.946 55.6008 834.105 55.6008 820.732V497.133Z" fill="#1E6BF1"/>
<path d="M242.245 760.625L359.942 644.802L227.2 697.831L242.245 760.625Z" fill="#1968F0"/>
<path d="M161.794 677.164L345.066 756.14C360.339 762.726 377.542 752.449 379.075 735.928L394.745 581.951C396.448 563.159 377.088 549.589 359.998 557.651L161.169 638.159C144.477 645.995 144.875 669.897 161.794 677.164Z" fill="url(#paint4_linear_10272_1588)"/>
<path d="M200.175 693.743L228.449 757.389C231.912 765.167 243.324 764.088 245.198 755.742L254.055 716.964L316.224 634.072C319.745 629.132 313.726 623 308.73 626.463L200.175 693.743Z" fill="#0C4EC0"/>
<path opacity="0.5" d="M372.564 665.759C372.564 713.213 334.095 751.682 286.641 751.682C239.187 751.682 200.719 713.213 200.719 665.759C200.719 618.305 239.187 579.836 286.641 579.836C334.095 579.836 372.564 618.305 372.564 665.759Z" fill="#F6F6F6"/>
<path d="M324.219 661.565C328.587 664.087 328.587 670.392 324.219 672.914L274.989 701.336C270.621 703.858 265.161 700.706 265.161 695.662L265.161 638.817C265.161 633.773 270.621 630.62 274.989 633.142L324.219 661.565Z" fill="#F6F6F6"/>
</g>
<defs>
<filter id="filter0_d_10272_1588" x="10.9956" y="434.815" width="548.045" height="541.845" filterUnits="userSpaceOnUse" color-interpolation-filters="sRGB">
<feFlood flood-opacity="0" result="BackgroundImageFix"/>
<feColorMatrix in="SourceAlpha" type="matrix" values="0 0 0 0 0 0 0 0 0 0 0 0 0 0 0 0 0 0 127 0" result="hardAlpha"/>
<feOffset dy="6.5011"/>
<feGaussianBlur stdDeviation="13.0022"/>
<feColorMatrix type="matrix" values="0 0 0 0 0 0 0 0 0 0 0 0 0 0 0 0 0 0 0.2 0"/>
<feBlend mode="normal" in2="BackgroundImageFix" result="effect1_dropShadow_10272_1588"/>
<feBlend mode="normal" in="SourceGraphic" in2="effect1_dropShadow_10272_1588" result="shape"/>
</filter>
<linearGradient id="paint0_linear_10272_1588" x1="123.005" y1="217.191" x2="879.469" y2="934.051" gradientUnits="userSpaceOnUse">
<stop stop-color="#1968F0"/>
<stop offset="0.2912" stop-color="#125BD8"/>
<stop offset="0.5885" stop-color="#0E51C6"/>
<stop offset="0.8048" stop-color="#0C4EC0"/>
</linearGradient>
<linearGradient id="paint1_linear_10272_1588" x1="42.4575" y1="-285.826" x2="701.987" y2="1129.86" gradientUnits="userSpaceOnUse">
<stop stop-color="white"/>
<stop offset="0.147721" stop-color="#F7FAFE"/>
<stop offset="0.304044" stop-color="#E2ECFD"/>
<stop offset="0.677979" stop-color="#FAFCFF"/>
<stop offset="0.967346" stop-color="#C5D9FB"/>
</linearGradient>
<linearGradient id="paint2_linear_10272_1588" x1="385.959" y1="40.6763" x2="538.145" y2="88.697" gradientUnits="userSpaceOnUse">
<stop stop-color="#1968F0"/>
<stop offset="0.2106" stop-color="#1765EA"/>
<stop offset="0.4888" stop-color="#135CD9"/>
<stop offset="0.7855" stop-color="#0C4EC0"/>
</linearGradient>
<linearGradient id="paint3_linear_10272_1588" x1="649.661" y1="487.824" x2="697.434" y2="785.738" gradientUnits="userSpaceOnUse">
<stop stop-color="#98646D" stop-opacity="0.8"/>
<stop offset="1" stop-color="#98646D" stop-opacity="0"/>
</linearGradient>
<linearGradient id="paint4_linear_10272_1588" x1="203.243" y1="717.052" x2="523.208" y2="595.889" gradientUnits="userSpaceOnUse">
<stop offset="0.2903" stop-color="#0096FA"/>
<stop offset="0.4734" stop-color="#0093FA"/>
<stop offset="0.6087" stop-color="#008AFB"/>
<stop offset="0.7286" stop-color="#007AFB"/>
<stop offset="0.8397" stop-color="#0063FD"/>
<stop offset="0.9437" stop-color="#0046FE"/>
<stop offset="1" stop-color="#0033FF"/>
</linearGradient>
</defs>
</svg>
